X: 3
T: West Clare
R: reel
M: 4/4
L: 1/8
K: Ador
|: egdB A2 AG | EA AG A2 Bd | egdB A2 AG | EGGF G2 Bd :||: e2 eg edBd | eA A2 AG Bd | e2 eg edBe |1 d2 ef g2 fg :|2 dg ed gb fg :|


Tune 999	Setting 14211

